packages/ffe-icons/icons/filled/sm/pageview.svg

<svg xmlns="http://www.w3.org/2000/svg" height="20" viewBox="0 -960 960 960" width="20"><path d="M444.197-432Q409-432 384.5-456.303t-24.5-59.5Q360-551 384.303-575.5t59.5-24.5Q479-600 503.5-575.697t24.5 59.5Q528-481 503.697-456.5t-59.5 24.5ZM180.309-212.001q-26.308 0-45.308-19t-19-45.308v-407.382q0-26.308 19-45.308t45.308-19h599.382q27.008 0 45.658 19 18.65 19 18.65 45.308v447.768q0 21.495-19.693 29.747-19.692 8.252-34.769-6.824L558.306-443.231q13-17.616 17.346-35.539 4.347-17.923 4.347-37.23 0-56.538-39.731-96.268-39.73-39.731-96.268-39.731-56.538 0-96.268 39.731-39.731 39.73-39.731 96.268 0 56.538 39.595 96.268 39.594 39.731 95.938 39.731 22.466 0 42.004-7.077 19.539-7.077 37.385-19.231L661.77-266.463q15.076 15.077 6.824 34.769-8.252 19.693-29.747 19.693H180.309Z"/></svg>

<svg xmlns="http://www.w3.org/2000/svg" height="20" viewBox="0 -960 960 960" width="20"><path d="M444.2-432q-35.2 0-59.7-24.3-24.5-24.31-24.5-59.5 0-35.2 24.3-59.7 24.31-24.5 59.5-24.5 35.2 0 59.7 24.3 24.5 24.31 24.5 59.5 0 35.2-24.3 59.7-24.31 24.5-59.5 24.5ZM180.31-212Q154-212 135-231q-19-19-19-45.31v-407.38Q116-710 135-729q19-19 45.31-19h599.38q27.01 0 45.66 19Q844-710 844-683.69v447.77q0 21.49-19.69 29.74-19.7 8.26-34.77-6.82L558.31-443.23q13-17.62 17.34-35.54Q580-496.69 580-516q0-56.54-39.73-96.27T444-652q-56.54 0-96.27 39.73T308-516q0 56.54 39.6 96.27Q387.19-380 443.53-380q22.47 0 42.01-7.08t37.38-19.23l138.85 139.85q15.08 15.07 6.82 34.77Q660.34-212 638.85-212H180.31Z"/></svg>
